X: 89
T: the High road to Dublin	
%R: jig
B: "The Hibernian Muse" p.55
F: http://imslp.org/wiki/The_Hibernian_Muse_%28Various%29
Z: 2015 John Chambers <jc:trillian.mit.edu>
P: No. LXXXIX.
M: 6/8
L: 1/8
K: Amix
% - - - - - - - - - - - - - - - - - - - - - - - - - - - - -
V: 1
g |\
fed cAc | ecA A2g | fed cAc | dBG G2g |\
fed cAc | def gfe | agf gfe | dBG G2 :|
|: B |\
A2a acA | acA A2B | A2a acA | dBG G2B |\
A2a acA | acA acA | agf gfe | dBG G2 :|
% - - - - - - - - - - - - - - - - - - - - - - - - - - - - -
V: 2 clef=bass middle=d
z |\
d3 z3 | a3 A3 | d3 z3 | g3 G3 |\
d3 z3 | d3 z3 | d3 z3 | g3 G2 :|
|: z |\
c3 c'3 | c3 c'3 | c3 z3 | g3 G3 |\
c3 c'3 | c3 c'3 | d3 z3 | g3 G2 :|
